svg/fluentui-system-icons/ic_fluent_ticket_diagonal_16_filled.svg

<svg width="16" height="16" viewBox="0 0 16 16" fill="none" xmlns="http://www.w3.org/2000/svg">
<path d="M9.97753 1.35238C9.42499 0.845867 8.57155 0.86441 8.04153 1.39444L1.42566 8.01051C0.878941 8.55725 0.878947 9.44367 1.42568 9.9904L2.35182 10.9165C2.69897 11.2637 3.19839 11.1801 3.49254 10.984C3.66674 10.8679 3.87564 10.8002 4.10156 10.8002C4.70908 10.8002 5.20156 11.2927 5.20156 11.9002C5.20156 12.1262 5.13388 12.3351 5.01778 12.5093C4.82172 12.8034 4.73812 13.3028 5.08526 13.65L5.98972 14.5544C6.5482 15.1129 7.45784 15.0991 7.99915 14.524L14.5983 7.51243C15.1331 6.94415 15.1001 6.04827 14.5248 5.52093L13.6384 4.70837C13.4195 4.50765 13.1424 4.46974 12.9119 4.51087C12.6849 4.55138 12.4696 4.67151 12.3143 4.84169C12.1126 5.06269 11.8235 5.20044 11.5016 5.20044C10.894 5.20044 10.4016 4.70795 10.4016 4.10044C10.4016 3.81258 10.5116 3.55132 10.6927 3.355C10.8489 3.18557 10.95 2.96074 10.9706 2.7311C10.9916 2.49787 10.9297 2.22527 10.7109 2.02465L9.97753 1.35238Z" fill="#212121"/>
</svg>

<svg xmlns="http://www.w3.org/2000/svg" width="16" height="16"><path d="M9.978 1.352a1.4 1.4 0 0 0-1.936.042L1.426 8.011a1.4 1.4 0 0 0 0 1.98l.926.925c.347.348.846.264 1.14.068a1.1 1.1 0 0 1 1.525 1.525c-.195.294-.279.794.068 1.141l.905.904a1.4 1.4 0 0 0 2.01-.03l6.598-7.012a1.4 1.4 0 0 0-.073-1.991l-.887-.813a.842.842 0 0 0-.726-.197c-.227.04-.442.16-.598.33a1.1 1.1 0 1 1-1.622-1.487c.157-.168.258-.393.279-.623a.841.841 0 0 0-.26-.706l-.733-.673Z"/></svg>
